X: 1
T: the Honorable Captain Elliot's Quickstep
M: 2/4
L: 1/8
K: D
A \
| "D"d2 "A7"e/g/e/c/ | "D"df a2 | "G"ge "D"fd | "Em"Be/d/ "A7"c/A/B/c/ \
| "D"d2 "A7"e/g/e/c/ | "Bm"df "Em"g/b/a/g/ |  "D"fd "A7"Bc | "D"d2 d :|
|: A \
| "A"cd ec | "D"Aa/g/ "D7"f2 | "G"db "Em"a/g/f/e/ |  "A"d/c/e/d/ "A7"c/B/A/G/ \
| "D"Ff "Em"Gg | "D"Aa "G"Bb | "D"af/a/ "A7"gc | "D"d2 d :|
